src/actions/24/node.svg

<svg xmlns="http://www.w3.org/2000/svg" viewBox="0 0 24 24">
  <defs id="defs3051">
    <style type="text/css" id="current-color-scheme">
      .ColorScheme-Text {
        color:#363636;
      }
      </style>
  </defs>
 <path style="fill:currentColor;fill-opacity:1;stroke:none" 
     d="M 7 4 L 6.90625 4.09375 L 4 7 L 4 7.90625 L 4 19.3125 L 4 20 L 4.6875 20 L 16.125 20 L 16.96875 20 L 17 19.96875 L 19.90625 17.0625 L 19.96875 17 L 20 16.96875 L 20 16.4375 L 20 4.6875 L 20 4 L 19.3125 4 L 7.53125 4 L 7 4 z M 8 5 L 18.3125 5 L 16.375 6.9375 L 16.3125 7 L 8 7 L 8 5 z M 7 5.375 L 7 7 L 5.375 7 L 7 5.375 z M 19 5.6875 L 19 16 L 17 16 L 17 7.6875 L 17.0625 7.625 L 19 5.6875 z M 5 8 L 7 8 L 7 16.28125 L 6.65625 16.65625 L 5 18.3125 L 5 8 z M 8 8 L 16 8 L 16 16 L 8 16 L 8 8 z M 7.71875 17 L 16 17 L 16 19 L 5.6875 19 L 7.34375 17.34375 L 7.71875 17 z M 17 17 L 18.59375 17 L 17 18.59375 L 17 17 z "
     class="ColorScheme-Text"
     />
</svg>

<svg xmlns="http://www.w3.org/2000/svg" viewBox="0 0 24 24">
    <path d="m7 4-.094.094L4 7v13h12.969l.031-.031 2.906-2.907.063-.062.031-.031V4H7zm1 1h10.313l-1.938 1.938-.062.062H8V5zm-1 .375V7H5.375L7 5.375zm12 .313V16h-2V7.688l.063-.063L19 5.688zM5 8h2v8.281l-.344.375L5 18.313V8zm3 0h8v8H8V8zm-.281 9H16v2H5.688l1.656-1.656.375-.344zM17 17h1.594L17 18.594V17z" style="fill:currentColor;fill-opacity:1;stroke:none;color:#050505;opacity:.7"/>
</svg>
